tools/download-figma-icons/icons/outlined-medium/teddy.svg

<svg width="24" height="24" viewBox="0 0 24 24" fill="none" xmlns="http://www.w3.org/2000/svg">
<path fill-rule="evenodd" clip-rule="evenodd" d="M1.5045 12.75C1.5045 11.1217 2.0295 9.5175 3.02325 8.10975C3.14325 7.9395 3.18675 7.728 3.14475 7.524C3.102 7.32075 2.97675 7.143 2.79975 7.03575C1.986 6.543 1.5 5.73525 1.5 4.875C1.5 3.4275 2.8455 2.25 4.49925 2.25C5.73225 2.25 6.8565 2.93325 7.29675 3.95025C7.45125 4.3065 7.85025 4.48425 8.2215 4.3635C10.6695 3.5505 13.3253 3.54975 15.7755 4.3605C16.146 4.48275 16.5457 4.3035 16.6995 3.948C17.1405 2.9325 18.2648 2.25 19.4963 2.25C21.15 2.25 22.4955 3.4275 22.4955 4.875C22.4955 5.73375 22.0125 6.54075 21.2025 7.03275C21.0247 7.14075 20.8995 7.31775 20.8575 7.521C20.8155 7.72425 20.8597 7.9365 20.9797 8.10675C21.9742 9.516 22.5 11.121 22.5 12.75C22.5 16.0117 20.4593 18.864 17.4233 20.4427C17.7878 19.8142 17.997 19.1145 17.997 18.375C17.997 15.687 15.306 13.5 11.9977 13.5C8.6895 13.5 5.9985 15.687 5.9985 18.375C5.9985 19.1122 6.207 19.809 6.56925 20.436C3.53925 18.8565 1.5045 16.0065 1.5045 12.75ZM12.033 21.7485C12.0274 21.7485 12.0219 21.7489 12.0165 21.7493C12.0111 21.7496 12.0056 21.75 12 21.75C11.8919 21.75 11.7853 21.7438 11.6785 21.7376C11.6193 21.7341 11.5601 21.7307 11.5005 21.7283C9.2535 21.5423 7.4985 20.1098 7.4985 18.375C7.4985 16.875 8.81026 15.603 10.617 15.1643C10.5405 15.3443 10.4978 15.5423 10.4978 15.75C10.4978 16.578 11.1698 17.25 11.9978 17.25C12.8265 17.25 13.4978 16.578 13.4978 15.75C13.4978 15.5423 13.4558 15.3443 13.3785 15.1643C15.1853 15.603 16.497 16.875 16.497 18.375C16.497 20.1113 14.7398 21.5445 12.489 21.729C12.4301 21.731 12.3715 21.7344 12.313 21.7378L12.3128 21.7378C12.22 21.7431 12.1272 21.7485 12.033 21.7485ZM24 12.75C24 11.0452 23.52 9.36675 22.6073 7.857C23.4877 7.08525 23.9955 6.01425 23.9955 4.875C23.9955 2.601 21.9773 0.75 19.4963 0.75C17.8927 0.75 16.4475 1.518 15.645 2.7525C13.2645 2.085 10.7295 2.0865 8.352 2.75475C7.5495 1.51875 6.10425 0.75 4.49925 0.75C2.019 0.75 0 2.601 0 4.875C0 6.0165 0.51075 7.089 1.395 7.86075C0.483 9.36975 0.0045 11.0468 0.0045 12.75C0.0045 18.3503 5.043 22.926 11.3588 23.2215C11.5688 23.2395 11.7817 23.25 11.9977 23.25H12H12.0023C12.0139 23.25 12.0253 23.2492 12.0367 23.2484H12.0367C12.0444 23.2478 12.0522 23.2473 12.06 23.247C12.2528 23.2455 12.444 23.238 12.6322 23.2222C18.9548 22.9327 24 18.354 24 12.75ZM9.74857 12.75C10.5766 12.75 11.2478 12.078 11.2478 11.25C11.2478 10.422 10.5766 9.75 9.74857 9.75C8.92057 9.75 8.24857 10.422 8.24857 11.25C8.24857 12.078 8.92057 12.75 9.74857 12.75ZM15.7472 11.25C15.7472 12.078 15.0752 12.75 14.2472 12.75C13.4192 12.75 12.7479 12.078 12.7479 11.25C12.7479 10.422 13.4192 9.75 14.2472 9.75C15.0752 9.75 15.7472 10.422 15.7472 11.25Z" fill="black"/>
</svg>

<svg xmlns="http://www.w3.org/2000/svg" width="24" height="24" fill="none" viewBox="0 0 24 24"><path fill="currentColor" fill-rule="evenodd" d="M1.505 12.75c0-1.628.525-3.232 1.518-4.64A.75.75 0 0 0 2.8 7.036c-.814-.493-1.3-1.3-1.3-2.161 0-1.447 1.346-2.625 3-2.625 1.232 0 2.356.683 2.797 1.7a.75.75 0 0 0 .925.414 12.02 12.02 0 0 1 7.554-.003.75.75 0 0 0 .924-.413c.44-1.015 1.565-1.698 2.796-1.698 1.654 0 3 1.178 3 2.625 0 .859-.483 1.666-1.293 2.158a.75.75 0 0 0-.223 1.074c.994 1.409 1.52 3.014 1.52 4.643 0 3.262-2.04 6.114-5.077 7.693a4.1 4.1 0 0 0 .574-2.068c0-2.688-2.691-4.875-6-4.875C8.69 13.5 6 15.687 6 18.375a4.1 4.1 0 0 0 .57 2.061c-3.03-1.58-5.064-4.43-5.064-7.686m10.528 8.999h-.016L12 21.75q-.162-.002-.322-.012l-.178-.01c-2.245-.186-4-1.618-4-3.353 0-1.5 1.311-2.772 3.118-3.21a1.5 1.5 0 1 0 2.762 0c1.806.438 3.118 1.71 3.118 3.21 0 1.736-1.757 3.17-4.008 3.354l-.176.009q-.14.009-.28.01M24 12.75c0-1.705-.48-3.383-1.393-4.893.88-.772 1.389-1.843 1.389-2.982 0-2.274-2.019-4.125-4.5-4.125-1.603 0-3.048.768-3.851 2.003a13.5 13.5 0 0 0-7.293.002C7.549 1.519 6.104.75 4.499.75 2.02.75 0 2.601 0 4.875c0 1.141.51 2.214 1.395 2.986C.483 9.37.005 11.047.005 12.75c0 5.6 5.038 10.176 11.354 10.471q.315.028.639.029h.004q.018 0 .035-.002l.023-.001a8 8 0 0 0 .572-.025C18.955 22.932 24 18.354 24 12.75m-14.251 0a1.5 1.5 0 1 0-.002-3 1.5 1.5 0 0 0 .002 3m5.998-1.5a1.5 1.5 0 1 1-3-.001 1.5 1.5 0 0 1 3 .001" clip-rule="evenodd"/></svg>
